localPackages/DesignSystem/Sources/DesignSystem/Resources/Assets.xcassets/IconSet/ic-bag-percent.imageset/ic-bag-percent.svg

<svg width="24" height="24" viewBox="0 0 24 24" fill="none" xmlns="http://www.w3.org/2000/svg">
<g id="ic-bag-percent">
<path id="Icon" fill-rule="evenodd" clip-rule="evenodd" d="M12 3C10.6021 3 9.42755 3.95608 9.09451 5.25H14.9055C14.5725 3.95608 13.3979 3 12 3ZM12 1.5C9.77025 1.5 7.91928 3.12172 7.56222 5.25H3.75C2.50736 5.25 1.5 6.25736 1.5 7.5V17.25C1.5 20.1495 3.8505 22.5 6.75 22.5H17.25C20.1495 22.5 22.5 20.1495 22.5 17.25V7.5C22.5 6.25736 21.4926 5.25 20.25 5.25H16.4378C16.0807 3.12171 14.2297 1.5 12 1.5ZM3.75 6.75H7.5H9H15H16.5H20.25C20.6642 6.75 21 7.08579 21 7.5V17.25C21 19.3211 19.3211 21 17.25 21H6.75C4.67893 21 3 19.3211 3 17.25V7.5C3 7.08579 3.33579 6.75 3.75 6.75ZM8.25 11.25C8.25 10.8358 8.58579 10.5 9 10.5C9.41421 10.5 9.75 10.8358 9.75 11.25C9.75 11.6642 9.41421 12 9 12C8.58579 12 8.25 11.6642 8.25 11.25ZM9 9C7.75736 9 6.75 10.0074 6.75 11.25C6.75 12.4926 7.75736 13.5 9 13.5C10.2426 13.5 11.25 12.4926 11.25 11.25C11.25 10.0074 10.2426 9 9 9ZM16.2803 10.2803C16.5732 9.98744 16.5732 9.51256 16.2803 9.21967C15.9874 8.92678 15.5126 8.92678 15.2197 9.21967L7.71967 16.7197C7.42678 17.0126 7.42678 17.4874 7.71967 17.7803C8.01256 18.0732 8.48744 18.0732 8.78033 17.7803L16.2803 10.2803ZM14.25 15.75C14.25 15.3358 14.5858 15 15 15C15.4142 15 15.75 15.3358 15.75 15.75C15.75 16.1642 15.4142 16.5 15 16.5C14.5858 16.5 14.25 16.1642 14.25 15.75ZM15 13.5C13.7574 13.5 12.75 14.5074 12.75 15.75C12.75 16.9926 13.7574 18 15 18C16.2426 18 17.25 16.9926 17.25 15.75C17.25 14.5074 16.2426 13.5 15 13.5Z" fill="#0F0F0F"/>
</g>
</svg>

<svg xmlns="http://www.w3.org/2000/svg" width="24" height="24" viewBox="0 0 24 24">
  <g class="ic-bag-percent">
    <path fill-rule="evenodd" d="M12 3a3.001 3.001 0 0 0-2.905 2.25h5.81A3.001 3.001 0 0 0 12 3Zm0-1.5a4.501 4.501 0 0 0-4.438 3.75H3.75A2.25 2.25 0 0 0 1.5 7.5v9.75c0 2.9 2.35 5.25 5.25 5.25h10.5c2.9 0 5.25-2.35 5.25-5.25V7.5a2.25 2.25 0 0 0-2.25-2.25h-3.812A4.501 4.501 0 0 0 12 1.5ZM3.75 6.75h16.5a.75.75 0 0 1 .75.75v9.75A3.75 3.75 0 0 1 17.25 21H6.75A3.75 3.75 0 0 1 3 17.25V7.5a.75.75 0 0 1 .75-.75Zm4.5 4.5a.75.75 0 1 1 1.5 0 .75.75 0 0 1-1.5 0ZM9 9a2.25 2.25 0 1 0 0 4.5A2.25 2.25 0 0 0 9 9Zm7.28 1.28a.75.75 0 1 0-1.06-1.06l-7.5 7.5a.75.75 0 1 0 1.06 1.06l7.5-7.5Zm-2.03 5.47a.75.75 0 1 1 1.5 0 .75.75 0 0 1-1.5 0ZM15 13.5a2.25 2.25 0 1 0 0 4.5 2.25 2.25 0 0 0 0-4.5Z" class="Icon"/>
  </g>
</svg>
